dist/svg/u1F54C.svg

<?xml version="1.0" encoding="UTF-8"?><svg id="Layer_1" xmlns="http://www.w3.org/2000/svg" viewBox="0 0 40 40"><rect width="40" height="40" style="fill:none;"/><g><rect x="9.89733" y="16.94506" width="20.20533" height="19.27067" style="fill:#ffcca8;"/><path d="M20.42231,3.88212c-.26703-.13047-.57758-.13047-.84461,0-1.91383,.93512-9.68036,5.03133-9.68036,9.92338v3.13956H30.10267v-3.13956c0-4.89204-7.76653-8.98825-9.68036-9.92338Z" style="fill:#ef4452;"/><rect x="17.04992" y="31.7241" width="5.90016" height="4.49163" style="fill:#86584a;"/><path d="M20,27.85725c-1.6293,0-2.95008,1.32079-2.95008,2.95006v.91678h5.90016v-.91678c0-1.62927-1.32085-2.95006-2.95008-2.95006Z" style="fill:#86584a;"/><path d="M9.89733,19.41816v16.79757H4.44444c-1.07389,0-1.94444-.87056-1.94444-1.94444v-14.85313h7.39733Z" style="fill:#ffb582;"/><path d="M5.48867,12.462c.38424-.41541,1.03576-.41541,1.42,0,1.0742,1.16133,2.98867,3.43723,2.98867,4.90685v2.04931H2.5v-2.04931c0-1.46962,1.91446-3.74552,2.98867-4.90685Z" style="fill:#ef4452;"/><path d="M30.10267,19.41816v16.79757h5.45289c1.07389,0,1.94444-.87056,1.94444-1.94444v-14.85313h-7.39733Z" style="fill:#ffb582;"/><path d="M34.51133,12.462c-.38424-.41541-1.03576-.41541-1.42,0-1.0742,1.16133-2.98867,3.43723-2.98867,4.90685v2.04931h7.39733v-2.04931c0-1.46962-1.91446-3.74552-2.98867-4.90685Z" style="fill:#ef4452;"/></g></svg>

<svg id="Layer_1" data-name="Layer 1" xmlns="http://www.w3.org/2000/svg" viewBox="0 0 40 40"><defs><style>.cls-1{fill:none;}.cls-2{fill:#ffcca8;}.cls-3{fill:#ef4452;}.cls-4{fill:#86584a;}.cls-5{fill:#ffb582;}</style></defs><rect class="cls-1" width="40" height="40"/><rect class="cls-2" x="9.897" y="16.945" width="20.205" height="19.271"/><path class="cls-3" d="M20.422,3.882a.962.962,0,0,0-.844,0C17.664,4.817,9.9,8.913,9.9,13.806v3.139H30.1V13.806C30.1,8.913,22.336,4.817,20.422,3.882Z"/><rect class="cls-4" x="17.05" y="31.724" width="5.9" height="4.492"/><path class="cls-4" d="M20,27.857a2.95,2.95,0,0,0-2.95,2.95v.917h5.9v-.917A2.95,2.95,0,0,0,20,27.857Z"/><path class="cls-5" d="M9.9,19.418v16.8H4.444A1.945,1.945,0,0,1,2.5,34.271V19.418Z"/><path class="cls-3" d="M5.489,12.462a.965.965,0,0,1,1.42,0C7.983,13.623,9.9,15.9,9.9,17.369v2.049H2.5V17.369C2.5,15.9,4.414,13.623,5.489,12.462Z"/><path class="cls-5" d="M30.1,19.418v16.8h5.453A1.945,1.945,0,0,0,37.5,34.271V19.418Z"/><path class="cls-3" d="M34.511,12.462a.965.965,0,0,0-1.42,0C32.017,13.623,30.1,15.9,30.1,17.369v2.049h7.4V17.369C37.5,15.9,35.586,13.623,34.511,12.462Z"/></svg>
